app/images/dist/logo.svg

<svg width="95" height="40" viewBox="0 0 95 40" fill="none" xmlns="http://www.w3.org/2000/svg">
<path fill-rule="evenodd" clip-rule="evenodd" d="M32.279 27.6404C33.2963 28.056 34.3924 28.2637 35.5674 28.2637C36.7566 28.2637 37.8527 28.056 38.8557 27.6404C39.873 27.2249 40.7613 26.6446 41.5207 25.8996C42.2801 25.1545 42.8748 24.2805 43.3046 23.2775C43.7345 22.2602 43.9494 21.1641 43.9494 19.9892C43.9494 18.7999 43.7345 17.7038 43.3046 16.7008C42.8891 15.6978 42.3016 14.831 41.5422 14.1002C40.7828 13.3552 39.8945 12.7749 38.8772 12.3594C37.8599 11.9438 36.7566 11.7361 35.5674 11.7361C34.3781 11.7361 33.2748 11.9438 32.2575 12.3594C31.2402 12.7606 30.3519 13.3337 29.5925 14.0788C28.8331 14.8238 28.2456 15.6978 27.8301 16.7008C27.4146 17.7038 27.2068 18.7999 27.2068 19.9892C27.2068 21.1641 27.4146 22.2602 27.8301 23.2775C28.26 24.2805 28.8546 25.1545 29.614 25.8996C30.3734 26.6446 31.2617 27.2249 32.279 27.6404ZM37.7381 25.1903C37.079 25.4625 36.3554 25.5987 35.5674 25.5987C34.7936 25.5987 34.0772 25.4625 33.4181 25.1903C32.759 24.9037 32.1787 24.5097 31.6772 24.0082C31.1901 23.5067 30.8104 22.9121 30.5381 22.2244C30.2659 21.5366 30.1298 20.7915 30.1298 19.9892C30.1298 19.1868 30.2659 18.4489 30.5381 17.7754C30.8104 17.0877 31.1901 16.4931 31.6772 15.9916C32.1787 15.4758 32.759 15.0817 33.4181 14.8095C34.0772 14.5373 34.7936 14.4011 35.5674 14.4011C36.3554 14.4011 37.079 14.5373 37.7381 14.8095C38.3972 15.0817 38.9703 15.4758 39.4575 15.9916C39.959 16.4931 40.3387 17.0877 40.5966 17.7754C40.8688 18.4489 41.0049 19.1868 41.0049 19.9892C41.0049 20.7915 40.8688 21.5366 40.5966 22.2244C40.3387 22.9121 39.959 23.5067 39.4575 24.0082C38.9703 24.5097 38.3972 24.9037 37.7381 25.1903ZM52.0719 28.2639C50.8397 28.2639 49.7436 28.006 48.7836 27.4901C47.8379 26.9743 47.0929 26.2651 46.5484 25.3624C46.0039 24.4597 45.7317 23.4353 45.7317 22.289V11.9941H48.6547V22.1385C48.6547 22.7976 48.7979 23.3923 49.0845 23.9224C49.3854 24.4526 49.7937 24.8681 50.3096 25.169C50.8254 25.4555 51.4128 25.5988 52.0719 25.5988C52.7454 25.5988 53.3328 25.4555 53.8343 25.169C54.3501 24.8681 54.7513 24.4526 55.0379 23.9224C55.3388 23.3923 55.4892 22.7976 55.4892 22.1385V11.9941H58.4122V22.289C58.4122 23.4353 58.1399 24.4597 57.5955 25.3624C57.051 26.2651 56.2988 26.9743 55.3388 27.4901C54.3931 28.006 53.3042 28.2639 52.0719 28.2639ZM60.6855 28.006V11.9941H65.9081C67.5989 11.9941 69.0675 12.338 70.3141 13.0258C71.575 13.6992 72.5493 14.6377 73.237 15.8413C73.9248 17.0305 74.2687 18.4132 74.2687 19.9893C74.2687 21.5511 73.9248 22.9409 73.237 24.1588C72.5493 25.3624 71.575 26.3081 70.3141 26.9958C69.0675 27.6693 67.5989 28.006 65.9081 28.006H60.6855ZM63.6085 25.4269H65.9726C67.0616 25.4269 68.0001 25.2048 68.7881 24.7606C69.5905 24.3021 70.2138 23.6717 70.658 22.8693C71.1021 22.0526 71.3242 21.0926 71.3242 19.9893C71.3242 18.8717 71.1021 17.9117 70.658 17.1093C70.2138 16.307 69.5905 15.6837 68.7881 15.2395C68.0001 14.7953 67.0616 14.5732 65.9726 14.5732H63.6085V25.4269ZM17.0744 28.006V11.9941H19.9974V25.4269H26.8535V28.006H17.0744ZM5.41671 27.6404C6.39103 28.056 7.45132 28.2637 8.59758 28.2637C9.74384 28.2637 10.7683 28.0703 11.671 27.6834C12.588 27.2966 13.3617 26.7879 13.9922 26.1575C14.6226 25.5127 15.0739 24.8106 15.3462 24.0512L12.7241 22.8262C12.4232 23.6285 11.9146 24.2948 11.1982 24.8249C10.4817 25.3408 9.61488 25.5987 8.59758 25.5987C7.5946 25.5987 6.70625 25.3623 5.93252 24.8894C5.17313 24.4166 4.57851 23.7647 4.14866 22.9336C3.73314 22.0882 3.52538 21.1068 3.52538 19.9892C3.52538 18.8716 3.73314 17.8972 4.14866 17.0662C4.57851 16.2352 5.17313 15.5832 5.93252 15.1104C6.70625 14.6376 7.5946 14.4011 8.59758 14.4011C9.61488 14.4011 10.4817 14.6662 11.1982 15.1964C11.9146 15.7122 12.4232 16.3713 12.7241 17.1737L15.3462 15.9486C15.0739 15.1892 14.6226 14.4943 13.9922 13.8638C13.3617 13.2191 12.588 12.7032 11.671 12.3164C10.7683 11.9295 9.74384 11.7361 8.59758 11.7361C7.45132 11.7361 6.39103 11.9439 5.41671 12.3594C4.44239 12.7606 3.58986 13.3337 2.85912 14.0788C2.1427 14.8095 1.5839 15.6835 1.18271 16.7008C0.795848 17.7038 0.602417 18.7999 0.602417 19.9892C0.602417 21.1784 0.803012 22.2745 1.2042 23.2775C1.60539 24.2805 2.1642 25.1545 2.88061 25.8996C3.61135 26.6446 4.45672 27.2249 5.41671 27.6404Z" fill="white"/>
<path fill-rule="evenodd" clip-rule="evenodd" d="M86.7263 27.8623H72.8693C73.7665 27.1305 74.5235 26.2622 75.1252 25.2616L75.1325 25.2496C76.1167 23.5933 76.5737 21.7513 76.5737 19.7987C76.5737 17.8408 76.1205 15.9949 75.1215 14.3506C74.6208 13.5193 74.0124 12.7807 73.3049 12.1377H86.7263C91.2958 12.1377 95 15.6578 95 20C95 24.3422 91.2958 27.8623 86.7263 27.8623ZM85.255 21.7807L81.7953 26.2052H84.8566L88.2819 21.7871C88.7452 21.1803 89.0927 20.6508 89.3244 20.1985C89.556 19.7352 89.7105 19.3105 89.7877 18.9244C89.8649 18.5383 89.9035 18.1521 89.9035 17.766C89.9035 16.9828 89.716 16.2878 89.3409 15.6811C88.9658 15.0633 88.4473 14.5779 87.7855 14.2249C87.1346 13.8609 86.3789 13.6788 85.5185 13.6788C84.669 13.6788 83.9134 13.8609 83.2515 14.2249C82.5896 14.5889 82.0711 15.0854 81.696 15.7142C81.3209 16.343 81.1334 17.0655 81.1334 17.8819C81.1334 18.621 81.2989 19.2884 81.6298 19.8841C81.9718 20.4688 82.4351 20.9321 83.0198 21.2741C83.6155 21.6161 84.294 21.7871 85.0551 21.7871C85.1228 21.7871 85.1894 21.7849 85.255 21.7807ZM86.4286 19.4539C86.1638 19.6083 85.8604 19.6855 85.5185 19.6855C85.1875 19.6855 84.8841 19.6083 84.6084 19.4539C84.3326 19.2994 84.1119 19.0843 83.9465 18.8085C83.781 18.5327 83.6983 18.2128 83.6983 17.8488C83.6983 17.4737 83.781 17.1483 83.9465 16.8725C84.1119 16.5967 84.3326 16.3816 84.6084 16.2271C84.8841 16.0727 85.1875 15.9955 85.5185 15.9955C85.8604 15.9955 86.1638 16.0727 86.4286 16.2271C86.7044 16.3816 86.925 16.5967 87.0905 16.8725C87.2559 17.1483 87.3387 17.4737 87.3387 17.8488C87.3387 18.2128 87.2559 18.5327 87.0905 18.8085C86.925 19.0843 86.7044 19.2994 86.4286 19.4539Z" fill="#6C69FF"/>
</svg>

<svg width="95" height="40" fill="none" xmlns="http://www.w3.org/2000/svg"><path fill-rule="evenodd" clip-rule="evenodd" d="M32.279 27.64a8.61 8.61 0 0 0 3.288.624c1.19 0 2.286-.208 3.289-.624a8.18 8.18 0 0 0 2.665-1.74 8.107 8.107 0 0 0 1.784-2.622 8.36 8.36 0 0 0 .644-3.289c0-1.19-.215-2.285-.644-3.288a7.603 7.603 0 0 0-1.763-2.6 8.18 8.18 0 0 0-2.665-1.742c-1.017-.415-2.12-.623-3.31-.623-1.189 0-2.292.208-3.31.623a7.9 7.9 0 0 0-2.664 1.72A7.83 7.83 0 0 0 27.83 16.7c-.415 1.003-.623 2.099-.623 3.288 0 1.175.208 2.271.623 3.288a8.108 8.108 0 0 0 1.784 2.623 8.18 8.18 0 0 0 2.665 1.74Zm5.46-2.45a5.633 5.633 0 0 1-2.172.409 5.58 5.58 0 0 1-2.149-.409 5.592 5.592 0 0 1-1.74-1.182 5.36 5.36 0 0 1-1.14-1.784 6.02 6.02 0 0 1-.408-2.235c0-.802.136-1.54.408-2.214a5.36 5.36 0 0 1 1.14-1.783 5.143 5.143 0 0 1 1.74-1.183 5.576 5.576 0 0 1 2.15-.408c.787 0 1.511.136 2.17.409a4.92 4.92 0 0 1 1.72 1.182 4.944 4.944 0 0 1 1.139 1.783c.272.674.408 1.412.408 2.214a6.02 6.02 0 0 1-.408 2.235 4.944 4.944 0 0 1-1.14 1.784 5.339 5.339 0 0 1-1.719 1.182Zm14.333 3.074c-1.232 0-2.328-.258-3.288-.774a5.805 5.805 0 0 1-2.236-2.128c-.544-.902-.816-1.927-.816-3.073V11.994h2.923V22.14c0 .659.143 1.253.43 1.783.3.53.709.946 1.225 1.247.515.287 1.103.43 1.762.43.673 0 1.26-.143 1.762-.43a3.14 3.14 0 0 0 1.204-1.247c.3-.53.451-1.124.451-1.784V11.995h2.923V22.29c0 1.146-.272 2.17-.816 3.073a5.766 5.766 0 0 1-2.257 2.128c-.946.516-2.035.774-3.267.774Zm8.613-.258V11.994h5.223c1.69 0 3.16.344 4.406 1.032 1.261.673 2.235 1.612 2.923 2.815.688 1.19 1.032 2.572 1.032 4.148 0 1.562-.344 2.952-1.032 4.17-.688 1.203-1.662 2.15-2.923 2.837-1.246.673-2.715 1.01-4.406 1.01h-5.223Zm2.923-2.58h2.365c1.089 0 2.027-.221 2.815-.665a4.842 4.842 0 0 0 1.87-1.892c.444-.816.666-1.776.666-2.88 0-1.117-.222-2.077-.666-2.88a4.697 4.697 0 0 0-1.87-1.87c-.788-.444-1.726-.666-2.815-.666h-2.364v10.854Zm-46.534 2.58V11.994h2.923v13.433h6.857v2.579h-9.78ZM5.417 27.64c.974.416 2.034.624 3.18.624 1.147 0 2.171-.194 3.074-.58.917-.387 1.69-.896 2.321-1.527.63-.644 1.082-1.346 1.354-2.106l-2.622-1.225c-.3.802-.81 1.469-1.526 1.999-.716.516-1.583.774-2.6.774-1.003 0-1.892-.237-2.665-.71a4.907 4.907 0 0 1-1.784-1.955c-.416-.846-.624-1.827-.624-2.945 0-1.117.208-2.092.624-2.923a4.908 4.908 0 0 1 1.784-1.956c.773-.472 1.662-.709 2.665-.709 1.017 0 1.884.265 2.6.795a4.22 4.22 0 0 1 1.526 1.978l2.622-1.225c-.272-.76-.723-1.455-1.354-2.085-.63-.645-1.404-1.16-2.321-1.548-.903-.386-1.927-.58-3.073-.58-1.147 0-2.207.208-3.181.623a7.593 7.593 0 0 0-2.558 1.72A7.764 7.764 0 0 0 1.183 16.7c-.387 1.003-.58 2.099-.58 3.288 0 1.19.2 2.285.601 3.288A8.056 8.056 0 0 0 2.881 25.9a7.933 7.933 0 0 0 2.536 1.74Z" fill="#fff"/><path fill-rule="evenodd" clip-rule="evenodd" d="M86.726 27.862H72.87a9.968 9.968 0 0 0 2.256-2.6l.007-.012c.985-1.657 1.442-3.499 1.442-5.451 0-1.958-.453-3.804-1.453-5.448a9.834 9.834 0 0 0-1.816-2.213h13.421c4.57 0 8.274 3.52 8.274 7.862 0 4.342-3.704 7.862-8.274 7.862Zm-1.471-6.081-3.46 4.424h3.062l3.425-4.418c.463-.607.81-1.136 1.042-1.588.232-.464.386-.889.464-1.275.077-.386.115-.772.115-1.158 0-.783-.187-1.478-.562-2.085a3.96 3.96 0 0 0-1.555-1.456c-.651-.364-1.407-.546-2.267-.546-.85 0-1.606.182-2.268.546a4.04 4.04 0 0 0-1.555 1.49c-.375.628-.563 1.35-.563 2.167 0 .739.166 1.406.497 2.002a3.817 3.817 0 0 0 1.39 1.39c.596.342 1.274.513 2.035.513.068 0 .134-.002.2-.006Zm1.174-2.327a1.773 1.773 0 0 1-.91.232 1.83 1.83 0 0 1-.91-.232 1.769 1.769 0 0 1-.662-.646 1.829 1.829 0 0 1-.249-.96c0-.374.083-.7.249-.976.165-.275.386-.49.661-.645a1.83 1.83 0 0 1 .91-.232c.342 0 .646.078.91.232.276.155.497.37.663.645.165.276.248.602.248.977 0 .364-.083.684-.248.96a1.77 1.77 0 0 1-.662.645Z" fill="#6C69FF"/></svg>
